X: 21938
T: Kitty Goes A-Milking
R: reel
M: 4/4
K: Gmajor
|:dG (3GGG d2cA|dG (3GGG FGAB|dG (3GGG d2eg|fdcA (3GGG GB:|
dg~g2 agfg|dg~g2 bafa|dg~g2 agfg|fdAB cz Bc|
dg~g2 agfg|dg~g2 .d2 cA|defg a2 ag|gdcA G3B||

